X:1
T:Angeline the Baker
L:1/8
M:4/4
I:linebreak $
K:D
V:1 treble nm="Voice" snm="Voice"
V:1
 dB |"D" A2 B2 d3 A | B2 d4 d!wedge!B | A2 B2 dB A2 |"G" B4 dB |$ A2 B2 d3 e | f2 e2 d2 e | %7
 f2 e2 d2 B2 |1 A3 B A2 dB :|2 A2 B A2 fg ||$ f2 e2 de | f2 e2 d2 fg | a2 f2 e2 d2 | B2 B B2 fg |$ %14
 a2 f2 e2 de | f2 e2 d2 de |1 A3 B A2 fg |]2 A2 B A2 |] %18

